docs/img/xmr.svg

<?xml version="1.0" encoding="UTF-8"?>
<svg version="1.1" xmlns="http://www.w3.org/2000/svg" width="1280" height="1280">
<path d="M0 0 C0.9610968 0.00093658 1.9221936 0.00187317 2.91241455 0.00283813 C87.20747288 0.17966142 168.47832146 20.51367214 243.75 58.1875 C244.77077637 58.69394043 245.79155273 59.20038086 246.84326172 59.72216797 C270.00646444 71.25943969 291.8443218 84.95622017 312.75 100.1875 C313.63365234 100.83041992 313.63365234 100.83041992 314.53515625 101.48632812 C317.978524 104.00455009 321.37330933 106.58076902 324.75 109.1875 C325.28753906 109.60032227 325.82507813 110.01314453 326.37890625 110.43847656 C338.98327744 120.13580314 351.01231899 130.45951198 362.75 141.1875 C363.23259277 141.62497559 363.71518555 142.06245117 364.21240234 142.51318359 C374.93715376 152.23745394 385.68718033 162.14880592 395.0546875 173.2109375 C397.1862317 175.69610194 399.40683599 178.09190146 401.625 180.5 C406.54513443 185.90250055 411.19257746 191.47736254 415.75 197.1875 C416.3699585 197.95803711 416.3699585 197.95803711 417.00244141 198.74414062 C442.00598753 229.85047029 462.92728851 263.50412174 480.75 299.1875 C481.24483887 300.16928223 481.73967773 301.15106445 482.24951172 302.16259766 C517.9864889 373.35669145 535.03859101 454.0076162 534.9375 533.4375 C534.93656342 534.3985968 534.93562683 535.3596936 534.93466187 536.34991455 C534.81521992 593.29018288 525.75471086 649.17336742 507.75 703.1875 C454.62 703.1875 401.49 703.1875 346.75 703.1875 C346.42 556.0075 346.09 408.8275 345.75 257.1875 C232.23 370.7075 118.71 484.2275 1.75 601.1875 C-2.31802694 599.15348653 -4.94166025 596.77260635 -8.08333206 593.6002636 C-8.66537124 593.02053211 -9.24741042 592.44080062 -9.84708714 591.84350151 C-11.80772937 589.88817793 -13.76112183 587.92576708 -15.71466064 585.96334839 C-17.12836757 584.55051314 -18.54251373 583.13811728 -19.95706248 581.72612488 C-23.85187537 577.83579683 -27.74040316 573.93923842 -31.62796497 570.04166627 C-35.81791754 565.84309786 -40.0136265 561.65028908 -44.20864868 557.45678711 C-51.47901558 550.18747024 -58.74573948 542.91452702 -66.00992584 535.63903427 C-73.62957241 528.00755846 -81.25127919 520.37815 -88.87575531 512.75149918 C-89.34961095 512.27750606 -89.82346659 511.80351294 -90.31168149 511.31515639 C-92.71811165 508.90804958 -95.12457874 506.50097971 -97.53106007 504.09392406 C-114.58134957 487.03943242 -131.62699627 469.98030731 -148.66992188 452.91845703 C-165.22812184 436.34189186 -181.78843551 419.76744298 -198.3515625 403.19580078 C-199.39288988 402.15393212 -200.4342172 401.11206339 -201.47554445 400.0701946 C-209.53766544 392.00390255 -217.59992122 383.93774524 -225.66220951 375.87162042 C-265.19809423 336.3168594 -304.72328789 296.75143123 -344.25 257.1875 C-344.58 404.3675 -344.91 551.5475 -345.25 703.1875 C-398.38 703.1875 -451.51 703.1875 -506.25 703.1875 C-515.64022438 673.8430488 -515.64022438 673.8430488 -518.9375 659.4375 C-519.12388031 658.63466583 -519.31026062 657.83183167 -519.50228882 657.00466919 C-524.48544954 635.49449579 -528.10000927 613.94938938 -530.5 592 C-530.62503403 590.85976883 -530.62503403 590.85976883 -530.75259399 589.69650269 C-532.72386819 571.44654281 -533.46085733 553.2899744 -533.4375 534.9375 C-533.43656342 533.9764032 -533.43562683 533.0153064 -533.43466187 532.02508545 C-533.25783858 447.73002712 -512.92382786 366.45917854 -475.25 291.1875 C-474.74355957 290.16672363 -474.23711914 289.14594727 -473.71533203 288.09423828 C-462.17806031 264.93103556 -448.48127983 243.0931782 -433.25 222.1875 C-432.82138672 221.59839844 -432.39277344 221.00929688 -431.95117188 220.40234375 C-429.43294991 216.958976 -426.85673098 213.56419067 -424.25 210.1875 C-423.83717773 209.64996094 -423.42435547 209.11242187 -422.99902344 208.55859375 C-413.30169686 195.95422256 -402.97798802 183.92518101 -392.25 172.1875 C-391.81252441 171.70490723 -391.37504883 171.22231445 -390.92431641 170.72509766 C-381.20004606 160.00034624 -371.28869408 149.25031967 -360.2265625 139.8828125 C-357.74139806 137.7512683 -355.34559854 135.53066401 -352.9375 133.3125 C-347.53499945 128.39236557 -341.96013746 123.74492254 -336.25 119.1875 C-335.73630859 118.77419434 -335.22261719 118.36088867 -334.69335938 117.93505859 C-303.58702971 92.93151247 -269.93337826 72.01021149 -234.25 54.1875 C-233.26821777 53.69266113 -232.28643555 53.19782227 -231.27490234 52.68798828 C-160.08080855 16.9510111 -79.4298838 -0.10109101 0 0 Z " fill="#FF6600" transform="translate(639.25,105.8125)"/>
<path d="M0 0 C3.57068748 1.78534374 5.2998394 3.05072223 8.03733444 5.79123878 C8.83602943 6.58595168 9.63472442 7.38066457 10.45762229 8.19945967 C11.76501314 9.51558904 11.76501314 9.51558904 13.09881592 10.85830688 C14.0292 11.78698212 14.95958409 12.71565736 15.91816163 13.67247427 C18.50179487 16.25163053 21.07914223 18.83698987 23.65552115 21.42338991 C26.43441194 24.21090783 29.21907004 26.99265366 32.0030365 29.77510071 C36.82609881 34.59711371 41.6454822 39.4227786 46.46239471 44.2509346 C53.42686805 51.23165362 60.39684951 58.20685145 67.36819294 65.18070881 C78.67825095 76.49514539 89.9838343 87.81404222 101.28662109 99.13574219 C112.26702675 110.13450246 123.24952848 121.13116275 134.23486328 132.125 C134.91186038 132.80252255 135.58885749 133.4800451 136.28636965 134.17809863 C139.68263688 137.57697592 143.07894545 140.9758119 146.47527456 144.37462735 C174.65659386 172.57668418 202.83065891 200.78597916 231 229 C234.31030606 227.55497812 236.48836315 225.75897144 239.03174782 223.20876122 C239.82920941 222.41404832 240.626671 221.61933543 241.4482981 220.80054033 C242.31852775 219.92312075 243.18875741 219.04570117 244.08535767 218.14169312 C245.01433062 217.21301788 245.94330357 216.28434264 246.90042722 215.32752573 C249.48019049 212.7483541 252.05367301 210.16299361 254.62620306 207.57661009 C257.40101043 204.78906575 260.18161378 202.00731401 262.96156311 199.22489929 C267.77793847 194.40274799 272.59074526 189.5770587 277.40126419 184.7490654 C284.35766777 177.76757757 291.32052204 170.7925518 298.28517167 163.81929119 C309.58587725 152.50444793 320.88284039 141.18587651 332.17675781 129.86425781 C333.1908822 128.84764999 333.1908822 128.84764999 334.22549395 127.81050463 C339.02542772 122.99876792 343.82522842 118.18689849 348.625 113.375 C354.11123463 107.87490673 359.59753188 102.37487594 365.08398438 96.875 C365.75985067 96.19747745 366.43571697 95.5199549 367.13206406 94.82190137 C378.38584789 83.54078245 389.64353079 72.26356234 400.90402353 60.98914015 C407.85466621 54.02951724 414.80171953 47.06634722 421.74424611 40.09862794 C426.49676786 35.32930322 431.25277684 30.56347551 436.01159264 25.800431 C438.76071135 23.0486122 441.50811203 20.29513004 444.25120354 17.53730202 C447.21833764 14.55428739 450.19304633 11.57894607 453.16860962 8.6043396 C454.04330072 7.72245858 454.91799182 6.84057755 455.81918871 5.93197286 C457.00755786 4.74772676 457.00755786 4.74772676 458.21993446 3.5395565 C458.90657885 2.85106853 459.59322324 2.16258055 460.30067503 1.45322931 C462 0 462 0 464 0 C464 93.39 464 186.78 464 283 C537.92 283 611.84 283 688 283 C686.23718715 287.40703213 684.19601074 291.20148136 681.6875 295.1875 C681.25163574 295.88166016 680.81577148 296.57582031 680.36669922 297.29101562 C675.44298868 305.02408675 670.07976095 312.42664261 664.63037109 319.79492188 C663.05489779 321.92575069 661.48990724 324.06396009 659.92578125 326.203125 C654.18899089 333.99989798 648.18028428 341.46070067 641.8125 348.75 C639.23186404 351.70829 636.76503867 354.74682667 634.3125 357.8125 C630.81491588 362.12597625 627.07269857 366.0334815 623.09765625 369.90625 C621.23068738 371.7697422 619.51419398 373.67446853 617.8125 375.6875 C610.57964181 384.10330228 602.51130137 392.06999116 594.04296875 399.23828125 C591.89471688 401.09078907 589.81377143 403.00851824 587.73535156 404.9387207 C581.68686033 410.55122448 575.45925563 415.86056521 569 421 C568.48775879 421.41185547 567.97551758 421.82371094 567.44775391 422.24804688 C536.34068546 447.25403118 502.68525186 468.1763527 467 486 C466.01821777 486.49483887 465.03643555 486.98967773 464.02490234 487.49951172 C392.83080855 523.2364889 312.1798838 540.28859101 232.75 540.1875 C231.3083548 540.18609512 231.3083548 540.18609512 229.83758545 540.18466187 C145.54252712 540.00783858 64.27167854 519.67382786 -11 482 C-12.02077637 481.49355957 -13.04155273 480.98711914 -14.09326172 480.46533203 C-37.25646444 468.92806031 -59.0943218 455.23127983 -80 440 C-80.58910156 439.57138672 -81.17820312 439.14277344 -81.78515625 438.70117188 C-85.228524 436.18294991 -88.62330933 433.60673098 -92 431 C-92.53753906 430.58717773 -93.07507813 430.17435547 -93.62890625 429.74902344 C-106.23327744 420.05169686 -118.26231899 409.72798802 -130 399 C-130.48259277 398.56252441 -130.96518555 398.12504883 -131.46240234 397.67431641 C-142.18715376 387.95004606 -152.93718033 378.03869408 -162.3046875 366.9765625 C-164.4362317 364.49139806 -166.65683599 362.09559854 -168.875 359.6875 C-173.79513443 354.28499945 -178.44257746 348.71013746 -183 343 C-183.41330566 342.48630859 -183.82661133 341.97261719 -184.25244141 341.44335938 C-196.72138427 325.93103783 -208.17978385 309.69973066 -219 293 C-219.71929687 291.89640137 -219.71929687 291.89640137 -220.453125 290.77050781 C-220.91203125 290.05475586 -221.3709375 289.33900391 -221.84375 288.6015625 C-222.25818359 287.95783691 -222.67261719 287.31411133 -223.09960938 286.65087891 C-224 285 -224 285 -224 283 C-150.08 283 -76.16 283 0 283 C0 189.61 0 96.22 0 0 Z " fill="#4C4C4C" transform="translate(408,634)"/>
</svg>

<?xml version="1.0" encoding="UTF-8" standalone="no"?>
<svg
   version="1.1"
   width="1068.376"
   height="1068.3759"
   id="svg6"
   sodipodi:docname="xmr.svg"
   inkscape:version="1.2.2 (b0a8486541, 2022-12-01)"
   xmlns:inkscape="http://www.inkscape.org/namespaces/inkscape"
   xmlns:sodipodi="http://sodipodi.sourceforge.net/DTD/sodipodi-0.dtd"
   xmlns="http://www.w3.org/2000/svg"
   xmlns:svg="http://www.w3.org/2000/svg">
  <defs
     id="defs10" />
  <sodipodi:namedview
     id="namedview8"
     pagecolor="#ffffff"
     bordercolor="#000000"
     borderopacity="0.25"
     inkscape:showpageshadow="false"
     inkscape:pageopacity="0.0"
     inkscape:pagecheckerboard="0"
     inkscape:deskcolor="#d1d1d1"
     showgrid="false"
     showborder="false"
     borderlayer="false"
     inkscape:zoom="1.1882812"
     inkscape:cx="533.54372"
     inkscape:cy="533.9645"
     inkscape:window-width="3840"
     inkscape:window-height="2124"
     inkscape:window-x="0"
     inkscape:window-y="0"
     inkscape:window-maximized="1"
     inkscape:current-layer="svg6" />
  <g
     id="g295"
     transform="translate(-105.81196,-105.81205)">
    <path
       d="M 0,0 C 0.9610968,9.3658e-4 1.9221936,0.00187317 2.9124145,0.00283813 87.207473,0.17966142 168.47832,20.513672 243.75,58.1875 c 1.02078,0.50644 2.04155,1.012881 3.09326,1.534668 23.1632,11.537272 45.00106,25.234052 65.90674,40.465332 0.88365,0.64292 0.88365,0.64292 1.78516,1.29883 3.44336,2.51822 6.83815,5.09444 10.21484,7.70117 0.53754,0.41282 1.07508,0.82564 1.62891,1.25098 12.60437,9.69732 24.63341,20.02103 36.37109,30.74902 0.48259,0.43748 0.96519,0.87495 1.4624,1.32568 10.72475,9.72427 21.47478,19.63563 30.84229,30.69776 2.13154,2.48516 4.35215,4.88096 6.57031,7.28906 4.92013,5.4025 9.56758,10.97736 14.125,16.6875 0.61996,0.77054 0.61996,0.77054 1.25244,1.55664 25.00355,31.10633 45.92485,64.75998 63.74756,100.44336 0.49484,0.98178 0.98968,1.96356 1.49951,2.9751 35.73698,71.19409 52.78908,151.84502 52.68799,231.2749 -9.4e-4,0.9611 -0.002,1.92219 -0.003,2.91241 -0.11944,56.94027 -9.17995,112.82346 -27.18466,166.83759 -53.13,0 -106.26,0 -161,0 -0.33,-147.18 -0.66,-294.36 -1,-446 -113.52,113.52 -227.04,227.04 -344,344 -4.0680269,-2.03401 -6.6916602,-4.41489 -9.8333321,-7.58724 -0.5820391,-0.57973 -1.1640783,-1.15946 -1.763755,-1.75676 -1.9606419,-1.95532 -3.9140349,-3.91773 -5.8675739,-5.88015 -1.413707,-1.41284 -2.827853,-2.82523 -4.242401,-4.23723 -3.894813,-3.89032 -7.783341,-7.78688 -11.670903,-11.68445 -4.189953,-4.19857 -8.385661,-8.39138 -12.580684,-12.58488 -7.270367,-7.26932 -14.53709,-14.54226 -21.801277,-21.81776 -7.619646,-7.63147 -15.241353,-15.26088 -22.865829,-22.88753 -0.473856,-0.47399 -0.947712,-0.94799 -1.435926,-1.43634 -2.406431,-2.40711 -4.812898,-4.81418 -7.219379,-7.22124 -17.05029,-17.05449 -34.09594,-34.11361 -51.13886,-51.17546 -16.5582,-16.57657 -33.11852,-33.15102 -49.68164,-49.72266 -1.04133,-1.04187 -2.08266,-2.08374 -3.12398,-3.12561 -8.06213,-8.06629 -16.12438,-16.13244 -24.18667,-24.19857 -39.53588,-39.55476 -79.06108,-79.12019 -118.58779,-118.68412 -0.33,147.18 -0.66,294.36 -1,446 -53.13,0 -106.26,0 -161,0 -9.39022,-29.34445 -9.39022,-29.34445 -12.6875,-43.75 -0.18638,-0.80283 -0.37276,-1.60567 -0.56479,-2.43283 -4.983,-21.51017 -8.59756,-43.05528 -10.99755,-65.00467 -0.12503,-1.14023 -0.12503,-1.14023 -0.25259,-2.3035 -1.97128,-18.24996 -2.70827,-36.40653 -2.68491,-54.759 9.4e-4,-0.9611 0.002,-1.92219 0.003,-2.91241 0.17682,-84.29506 20.51083,-165.56591 58.18466,-240.83759 0.50644,-1.02078 1.01288,-2.04155 1.53467,-3.09326 11.53727,-23.1632 25.23405,-45.00106 40.46533,-65.90674 0.42861,-0.5891 0.85723,-1.1782 1.29883,-1.78516 2.51822,-3.44336 5.09444,-6.83815 7.70117,-10.21484 0.41282,-0.53754 0.82564,-1.07508 1.25098,-1.62891 9.69732,-12.60437 20.02103,-24.63341 30.74902,-36.37109 0.43748,-0.48259 0.87495,-0.96519 1.32568,-1.4624 9.72427,-10.72475 19.63563,-21.47478 30.69776,-30.84229 2.48516,-2.13154 4.88096,-4.35215 7.28906,-6.57031 5.4025,-4.92013 10.97736,-9.56758 16.6875,-14.125 0.51369,-0.41331 1.02738,-0.82661 1.55664,-1.25244 31.10633,-25.003548 64.75998,-45.924849 100.44336,-63.74756 0.98178,-0.494839 1.96356,-0.989678 2.9751,-1.499512 C -160.08081,16.951011 -79.429884,-0.10109101 0,0 Z"
       fill="#ff6600"
       transform="translate(639.25,105.8125)"
       id="path2" />
    <path
       d="m 0,0 c 3.5706875,1.7853437 5.2998394,3.0507222 8.0373344,5.7912388 0.798695,0.7947129 1.59739,1.5894258 2.4202876,2.4082209 1.307391,1.3161293 1.307391,1.3161293 2.641194,2.6588473 0.930384,0.928675 1.860768,1.85735 2.819346,2.814167 2.583633,2.579157 5.16098,5.164516 7.737359,7.750916 2.778891,2.787518 5.563549,5.569264 8.347515,8.351711 4.823063,4.822013 9.642446,9.647678 14.459359,14.475834 6.964473,6.980719 13.934455,13.955916 20.905798,20.929774 11.310058,11.314436 22.615641,22.633333 33.918427,33.955033 10.98041,10.998758 21.96291,21.995418 32.94824,32.989258 0.677,0.67752 1.354,1.35505 2.05151,2.0531 3.39627,3.39888 6.79258,6.79771 10.1889,10.19653 C 174.65659,172.57668 202.83066,200.78598 231,229 c 3.31031,-1.44502 5.48836,-3.24103 8.03175,-5.79124 0.79746,-0.79471 1.59492,-1.58942 2.41655,-2.40822 0.87023,-0.87742 1.74046,-1.75484 2.63706,-2.65885 0.92897,-0.92867 1.85794,-1.85735 2.81507,-2.81416 2.57976,-2.57918 5.15324,-5.16454 7.72577,-7.75092 2.77481,-2.78754 5.55541,-5.5693 8.33536,-8.35171 4.81638,-4.82215 9.62919,-9.64784 14.4397,-14.47583 6.95641,-6.98149 13.91926,-13.95652 20.88391,-20.92978 11.30071,-11.31484 22.59767,-22.63341 33.89159,-33.95503 1.01412,-1.01661 1.01412,-1.01661 2.04873,-2.05376 4.79994,-4.81173 9.59974,-9.6236 14.39951,-14.4355 5.48623,-5.50009 10.97253,-11.00012 16.45898,-16.5 0.67587,-0.677523 1.35174,-1.355045 2.04808,-2.053099 11.25379,-11.281119 22.51147,-22.558339 33.77196,-33.832761 6.95065,-6.959623 13.8977,-13.922793 20.84023,-20.890512 4.75252,-4.769325 9.50853,-9.535152 14.26734,-14.298197 2.74912,-2.751819 5.49652,-5.505301 8.23961,-8.263129 2.96714,-2.983015 5.94185,-5.958356 8.91741,-8.9329624 0.87469,-0.881881 1.74938,-1.7637621 2.65058,-2.6723667 1.18837,-1.1842461 1.18837,-1.1842461 2.40074,-2.3924164 0.68665,-0.688488 1.37329,-1.3769759 2.08075,-2.0863272 C 462,0 462,0 464,0 c 0,93.39 0,186.78 0,283 73.92,0 147.84,0 224,0 -1.76281,4.40703 -3.80399,8.20148 -6.3125,12.1875 -0.43586,0.69416 -0.87173,1.38832 -1.3208,2.10352 -4.92371,7.73307 -10.28694,15.13562 -15.73633,22.5039 -1.57547,2.13083 -3.14046,4.26904 -4.70459,6.4082 -5.73679,7.79678 -11.7455,15.25758 -18.11328,22.54688 -2.58064,2.95829 -5.04746,5.99683 -7.5,9.0625 -3.49758,4.31348 -7.2398,8.22098 -11.21484,12.09375 -1.86697,1.86349 -3.58347,3.76822 -5.28516,5.78125 -7.23286,8.4158 -15.3012,16.38249 -23.76953,23.55078 -2.14825,1.85251 -4.2292,3.77024 -6.30762,5.70044 C 581.68686,410.55122 575.45926,415.86057 569,421 c -0.51224,0.41186 -1.02448,0.82371 -1.55225,1.24805 C 536.34069,447.25403 502.68525,468.17635 467,486 c -0.98178,0.49484 -1.96356,0.98968 -2.9751,1.49951 -71.19409,35.73698 -151.84502,52.78908 -231.2749,52.68799 -1.44165,-10e-4 -1.44165,-10e-4 -2.91241,-0.003 C 145.54253,540.00784 64.271679,519.67383 -11,482 c -1.020776,-0.50644 -2.041553,-1.01288 -3.093262,-1.53467 C -37.256464,468.92806 -59.094322,455.23128 -80,440 c -0.589102,-0.42861 -1.178203,-0.85723 -1.785156,-1.29883 C -85.228524,436.18295 -88.623309,433.60673 -92,431 c -0.537539,-0.41282 -1.075078,-0.82564 -1.628906,-1.25098 C -106.23328,420.0517 -118.26232,409.72799 -130,399 c -0.48259,-0.43748 -0.96519,-0.87495 -1.4624,-1.32568 -10.72475,-9.72427 -21.47478,-19.63563 -30.84229,-30.69776 -2.13154,-2.48516 -4.35215,-4.88096 -6.57031,-7.28906 -4.92013,-5.4025 -9.56758,-10.97736 -14.125,-16.6875 -0.41331,-0.51369 -0.82661,-1.02738 -1.25244,-1.55664 C -196.72138,325.93104 -208.17978,309.69973 -219,293 c -0.7193,-1.1036 -0.7193,-1.1036 -1.45312,-2.22949 -0.45891,-0.71575 -0.91782,-1.43151 -1.39063,-2.16895 -0.41443,-0.64372 -0.82887,-1.28745 -1.25586,-1.95068 C -224,285 -224,285 -224,283 c 73.92,0 147.84,0 224,0 C 0,189.61 0,96.22 0,0 Z"
       fill="#4c4c4c"
       transform="translate(408,634)"
       id="path4" />
  </g>
</svg>
